X: 1
T:Brudl\aa{t} fr\aa{n} \"Oje Kapell
S:Christina E
S:3 Spelm\"an record
R:Wedding march
O:Sweden
M:2/4
K:DDorian
|: D \
| F2FD F2F2 | EFED E2E2 | F2FD F2F2 | EFED E2E2 |\
| F2FG A4 | G2GB A4 | [K:D] d2eg f2ed | "Fine"c4 d4 :|
| d2eg f2ed | cdef e2cA | d2eg afdf | e2c2 (A4 | A8) |\
| d2eg f2ed | cdef e2cA | d2ef afdf | e2c2 [d2F2]f2 |
| a2ab a2fd | g2gb g2ec | e2a2 f2df | e2c2 (A4 | A8) |\
| a2ab a2fd | g2gb g2ec | e2a2 f2df | e2c2 [d4F4] |]
